X:440
T: Anascaul #1
S: B.Breathnach: "Ceol Rince na hEireann" II/90 (gan ainm)
Z: B.Black
L: 1/8
M: 6/8
R: jig
K: Bdor
F|BcB BAF|ABc d2e|f2B BAF|A3 F2A|
BcB BAF|ABc d2e|f2B BAF|B3 B2 :|
f|a2f fed|efe e2e|f2B BAF|ABA AFA|
BcB BAF|ABc d2e|f2B BAF|B3 B2 :|

